icons/nu.svg

<?xml version="1.0" ?>
<svg xmlns="http://www.w3.org/2000/svg" xmlns:ev="http://www.w3.org/2001/xml-events" xmlns:xlink="http://www.w3.org/1999/xlink" baseProfile="full" height="600px" version="1.1" viewBox="39.27352972017445 -1024.5749796498892 10162.458895641246 12292.188596601105" width="497px">
	<defs/>
	<path d="M 5640.0,10233.0 C 5595.0,10226.0 5490.0,10189.0 5484.0,10178.0 C 5474.0,10161.0 5272.0,10070.0 5246.0,10070.0 C 5233.0,10070.0 5205.0,10064.0 5184.0,10056.0 C 5160.0,10048.0 5070.0,10040.0 4949.0,10036.0 C 4841.0,10032.0 4735.0,10024.0 4714.0,10018.0 C 4693.0,10013.0 4641.0,10003.0 4600.0,9996.0 C 4559.0,9989.0 4514.0,9979.0 4500.0,9973.0 C 4486.0,9966.0 4454.0,9958.0 4427.0,9955.0 C 4393.0,9950.0 4375.0,9942.0 4364.0,9926.0 C 4356.0,9912.0 4324.0,9893.0 4290.0,9881.0 C 4257.0,9869.0 4218.0,9849.0 4203.0,9836.0 C 4187.0,9823.0 4161.0,9805.0 4143.0,9797.0 C 4126.0,9788.0 4109.0,9771.0 4105.0,9760.0 C 4102.0,9749.0 4079.0,9728.0 4054.0,9714.0 C 4026.0,9697.0 4002.0,9673.0 3989.0,9648.0 C 3978.0,9626.0 3955.0,9601.0 3937.0,9592.0 C 3919.0,9583.0 3874.0,9543.0 3835.0,9504.0 C 3797.0,9465.0 3731.0,9412.0 3689.0,9387.0 C 3627.0,9348.0 3598.0,9321.0 3534.0,9240.0 C 3491.0,9185.0 3442.0,9114.0 3425.0,9082.0 C 3409.0,9050.0 3373.0,8994.0 3347.0,8957.0 C 3320.0,8920.0 3292.0,8869.0 3285.0,8842.0 C 3268.0,8780.0 3219.0,8673.0 3172.0,8597.0 C 3054.0,8404.0 2822.0,8111.0 2733.0,8043.0 C 2715.0,8029.0 2690.0,8001.0 2678.0,7981.0 C 2644.0,7924.0 2568.0,7838.0 2402.0,7667.0 C 2222.0,7480.0 2155.0,7388.0 2158.0,7330.0 C 2160.0,7307.0 2153.0,7275.0 2142.0,7253.0 C 2109.0,7188.0 2107.0,7144.0 2135.0,7035.0 C 2151.0,6970.0 2160.0,6907.0 2160.0,6854.0 C 2160.0,6769.0 2176.0,6713.0 2210.0,6675.0 C 2239.0,6644.0 2272.0,6542.0 2279.0,6464.0 C 2282.0,6425.0 2290.0,6387.0 2296.0,6379.0 C 2303.0,6371.0 2311.0,6349.0 2314.0,6330.0 C 2322.0,6291.0 2347.0,6187.0 2381.0,6062.0 C 2401.0,5985.0 2402.0,5965.0 2397.0,5767.0 C 2390.0,5525.0 2376.0,5442.0 2329.0,5368.0 C 2286.0,5302.0 2241.0,5209.0 2240.0,5188.0 C 2240.0,5157.0 2002.0,4980.0 1905.0,4939.0 C 1868.0,4923.0 1825.0,4900.0 1810.0,4887.0 C 1794.0,4875.0 1758.0,4852.0 1730.0,4835.0 C 1701.0,4819.0 1649.0,4786.0 1614.0,4763.0 C 1579.0,4739.0 1547.0,4720.0 1543.0,4720.0 C 1540.0,4720.0 1519.0,4705.0 1496.0,4687.0 C 1473.0,4668.0 1426.0,4640.0 1390.0,4625.0 C 1354.0,4609.0 1316.0,4588.0 1305.0,4578.0 C 1293.0,4568.0 1269.0,4557.0 1251.0,4554.0 C 1230.0,4549.0 1203.0,4531.0 1178.0,4504.0 C 1156.0,4480.0 1120.0,4450.0 1097.0,4436.0 C 1040.0,4403.0 992.0,4350.0 936.0,4259.0 C 881.0,4169.0 878.0,4131.0 915.0,4025.0 C 929.0,3987.0 940.0,3948.0 940.0,3939.0 C 940.0,3920.0 1032.0,3789.0 1101.0,3710.0 C 1128.0,3679.0 1162.0,3627.0 1177.0,3593.0 C 1199.0,3546.0 1232.0,3504.0 1324.0,3411.0 C 1389.0,3344.0 1456.0,3282.0 1473.0,3274.0 C 1572.0,3222.0 1754.0,3082.0 1902.0,2943.0 C 1938.0,2908.0 1974.0,2880.0 1980.0,2880.0 C 2017.0,2880.0 2320.0,2545.0 2320.0,2505.0 C 2320.0,2497.0 2334.0,2482.0 2350.0,2470.0 C 2367.0,2458.0 2389.0,2432.0 2399.0,2412.0 C 2410.0,2391.0 2439.0,2355.0 2465.0,2330.0 C 2520.0,2277.0 2600.0,2136.0 2600.0,2093.0 C 2600.0,2076.0 2609.0,2043.0 2620.0,2019.0 C 2648.0,1956.0 2648.0,1813.0 2620.0,1777.0 C 2609.0,1763.0 2600.0,1738.0 2600.0,1722.0 C 2600.0,1705.0 2590.0,1666.0 2578.0,1635.0 C 2561.0,1591.0 2549.0,1575.0 2521.0,1560.0 C 2467.0,1532.0 2432.0,1499.0 2412.0,1460.0 C 2403.0,1441.0 2379.0,1416.0 2360.0,1404.0 C 2341.0,1392.0 2316.0,1372.0 2305.0,1361.0 C 2294.0,1349.0 2261.0,1315.0 2232.0,1285.0 C 2166.0,1217.0 2159.0,1197.0 2169.0,1115.0 C 2180.0,1020.0 2200.0,1002.0 2370.0,928.0 L 2445.0,896.0 L 2665.0,895.0 C 2853.0,895.0 2891.0,898.0 2929.0,913.0 C 2971.0,930.0 2974.0,930.0 3026.0,910.0 C 3056.0,899.0 3099.0,890.0 3120.0,890.0 C 3142.0,890.0 3160.0,886.0 3160.0,880.0 C 3160.0,857.0 3222.0,803.0 3262.0,791.0 C 3286.0,783.0 3331.0,755.0 3365.0,726.0 C 3428.0,671.0 3525.0,597.0 3573.0,567.0 C 3588.0,557.0 3612.0,528.0 3627.0,502.0 C 3648.0,463.0 3666.0,447.0 3719.0,419.0 C 3775.0,389.0 3792.0,374.0 3832.0,313.0 C 3858.0,274.0 3898.0,229.0 3921.0,213.0 C 3943.0,198.0 3989.0,161.0 4022.0,133.0 C 4063.0,97.0 4091.0,80.0 4110.0,80.0 C 4125.0,80.0 4146.0,70.0 4160.0,55.0 C 4173.0,41.0 4193.0,30.0 4206.0,30.0 C 4218.0,30.0 4241.0,23.0 4256.0,15.0 C 4290.0,-4.0 4408.0,3.0 4452.0,26.0 C 4467.0,34.0 4490.0,40.0 4504.0,40.0 C 4518.0,40.0 4617.0,85.0 4724.0,140.0 C 4833.0,196.0 4931.0,240.0 4947.0,240.0 C 4992.0,240.0 5053.0,260.0 5082.0,285.0 C 5097.0,298.0 5129.0,311.0 5152.0,315.0 C 5176.0,319.0 5211.0,329.0 5230.0,337.0 C 5249.0,346.0 5306.0,356.0 5357.0,361.0 C 5408.0,365.0 5469.0,375.0 5492.0,383.0 C 5516.0,391.0 5576.0,401.0 5625.0,405.0 C 5675.0,409.0 5726.0,418.0 5740.0,425.0 C 5755.0,432.0 5819.0,439.0 5895.0,442.0 C 6017.0,446.0 6028.0,448.0 6074.0,475.0 C 6111.0,496.0 6128.0,515.0 6143.0,549.0 C 6162.0,593.0 6174.0,613.0 6248.0,728.0 C 6266.0,757.0 6301.0,822.0 6326.0,873.0 C 6386.0,998.0 6412.0,1045.0 6436.0,1072.0 C 6448.0,1085.0 6466.0,1113.0 6477.0,1135.0 C 6488.0,1157.0 6505.0,1190.0 6516.0,1209.0 C 6542.0,1253.0 6782.0,1493.0 6830.0,1522.0 C 6871.0,1547.0 6971.0,1625.0 7035.0,1681.0 C 7057.0,1701.0 7104.0,1736.0 7140.0,1760.0 C 7176.0,1784.0 7230.0,1829.0 7260.0,1861.0 C 7290.0,1892.0 7334.0,1927.0 7358.0,1939.0 C 7381.0,1951.0 7411.0,1977.0 7424.0,1998.0 C 7459.0,2052.0 7534.0,2130.0 7552.0,2130.0 C 7577.0,2130.0 7607.0,2173.0 7613.0,2219.0 C 7617.0,2250.0 7628.0,2273.0 7653.0,2299.0 C 7671.0,2319.0 7715.0,2376.0 7750.0,2425.0 C 7785.0,2475.0 7838.0,2541.0 7869.0,2573.0 C 7922.0,2629.0 8058.0,2730.0 8079.0,2730.0 C 8085.0,2730.0 8113.0,2750.0 8143.0,2774.0 C 8172.0,2798.0 8206.0,2823.0 8218.0,2829.0 C 8230.0,2835.0 8249.0,2857.0 8260.0,2878.0 C 8271.0,2898.0 8309.0,2954.0 8343.0,3002.0 C 8377.0,3049.0 8419.0,3107.0 8435.0,3131.0 C 8452.0,3154.0 8479.0,3188.0 8496.0,3205.0 C 8514.0,3222.0 8538.0,3257.0 8550.0,3281.0 C 8562.0,3305.0 8593.0,3348.0 8619.0,3375.0 C 8646.0,3403.0 8679.0,3447.0 8694.0,3473.0 C 8709.0,3499.0 8741.0,3543.0 8766.0,3571.0 C 8790.0,3598.0 8810.0,3625.0 8810.0,3630.0 C 8810.0,3634.0 8830.0,3662.0 8854.0,3690.0 C 8882.0,3722.0 8902.0,3759.0 8910.0,3788.0 C 8918.0,3822.0 8935.0,3849.0 8970.0,3885.0 C 8997.0,3913.0 9034.0,3959.0 9052.0,3987.0 C 9070.0,4015.0 9103.0,4065.0 9126.0,4097.0 C 9148.0,4129.0 9170.0,4172.0 9173.0,4194.0 C 9176.0,4215.0 9196.0,4264.0 9216.0,4304.0 C 9236.0,4343.0 9263.0,4395.0 9276.0,4420.0 C 9345.0,4553.0 9374.0,4832.0 9329.0,4930.0 C 9318.0,4955.0 9300.0,4998.0 9289.0,5027.0 C 9278.0,5055.0 9254.0,5098.0 9235.0,5122.0 C 9216.0,5145.0 9200.0,5170.0 9200.0,5176.0 C 9200.0,5182.0 9186.0,5199.0 9170.0,5213.0 C 9154.0,5228.0 9140.0,5247.0 9140.0,5255.0 C 9140.0,5264.0 9123.0,5289.0 9101.0,5313.0 C 9080.0,5336.0 9044.0,5391.0 9021.0,5435.0 C 8998.0,5479.0 8970.0,5531.0 8959.0,5550.0 C 8948.0,5569.0 8921.0,5623.0 8899.0,5670.0 C 8877.0,5717.0 8853.0,5766.0 8845.0,5780.0 C 8837.0,5794.0 8828.0,5817.0 8825.0,5832.0 C 8822.0,5848.0 8806.0,5867.0 8785.0,5880.0 C 8766.0,5892.0 8750.0,5908.0 8750.0,5916.0 C 8750.0,5924.0 8734.0,5947.0 8715.0,5969.0 C 8696.0,5990.0 8680.0,6013.0 8680.0,6019.0 C 8680.0,6026.0 8671.0,6049.0 8660.0,6070.0 C 8649.0,6092.0 8633.0,6138.0 8624.0,6173.0 C 8616.0,6207.0 8603.0,6249.0 8595.0,6265.0 C 8587.0,6282.0 8578.0,6316.0 8575.0,6342.0 C 8571.0,6372.0 8559.0,6401.0 8544.0,6419.0 C 8529.0,6437.0 8515.0,6470.0 8510.0,6502.0 C 8505.0,6531.0 8492.0,6581.0 8481.0,6612.0 C 8469.0,6644.0 8460.0,6692.0 8460.0,6719.0 C 8460.0,6753.0 8452.0,6781.0 8435.0,6811.0 C 8404.0,6866.0 8404.0,6905.0 8434.0,6967.0 C 8447.0,6993.0 8466.0,7038.0 8476.0,7066.0 C 8494.0,7117.0 8493.0,7121.0 8473.0,7248.0 C 8455.0,7352.0 8445.0,7390.0 8419.0,7436.0 C 8401.0,7468.0 8383.0,7514.0 8379.0,7539.0 C 8365.0,7623.0 8343.0,7683.0 8313.0,7719.0 C 8297.0,7739.0 8265.0,7794.0 8242.0,7842.0 C 8219.0,7889.0 8196.0,7931.0 8190.0,7935.0 C 8185.0,7938.0 8180.0,7953.0 8180.0,7968.0 C 8180.0,7983.0 8169.0,8027.0 8155.0,8065.0 C 8142.0,8104.0 8130.0,8149.0 8130.0,8166.0 C 8130.0,8182.0 8125.0,8201.0 8118.0,8208.0 C 8112.0,8214.0 8105.0,8257.0 8102.0,8302.0 C 8099.0,8362.0 8092.0,8391.0 8079.0,8409.0 C 8065.0,8426.0 8060.0,8449.0 8060.0,8495.0 C 8060.0,8536.0 8053.0,8573.0 8040.0,8601.0 C 8014.0,8658.0 8013.0,8772.0 8038.0,8832.0 C 8062.0,8893.0 8063.0,9207.0 8039.0,9260.0 C 8030.0,9279.0 8015.0,9321.0 8006.0,9352.0 C 7987.0,9417.0 7936.0,9498.0 7890.0,9536.0 C 7873.0,9551.0 7852.0,9576.0 7843.0,9594.0 C 7820.0,9640.0 7791.0,9668.0 7759.0,9675.0 C 7743.0,9679.0 7718.0,9696.0 7705.0,9715.0 C 7684.0,9742.0 7661.0,9754.0 7582.0,9780.0 C 7529.0,9797.0 7468.0,9823.0 7448.0,9837.0 C 7387.0,9878.0 7304.0,9902.0 7188.0,9910.0 C 7084.0,9918.0 7079.0,9919.0 7038.0,9954.0 C 7001.0,9986.0 6990.0,9990.0 6941.0,9990.0 C 6844.0,9990.0 6771.0,10007.0 6750.0,10033.0 C 6740.0,10046.0 6712.0,10062.0 6688.0,10069.0 C 6664.0,10076.0 6625.0,10089.0 6600.0,10098.0 C 6575.0,10106.0 6519.0,10117.0 6475.0,10121.0 C 6286.0,10140.0 6171.0,10165.0 6154.0,10191.0 C 6151.0,10196.0 6114.0,10200.0 6072.0,10200.0 C 6017.0,10200.0 5983.0,10206.0 5951.0,10220.0 C 5898.0,10244.0 5862.0,10245.0 5799.0,10223.0 C 5754.0,10207.0 5749.0,10207.0 5715.0,10223.0 C 5695.0,10232.0 5676.0,10239.0 5672.0,10239.0 C 5668.0,10238.0 5654.0,10235.0 5640.0,10233.0" fill="pink"/>
</svg>

<?xml version="1.0" standalone="no"?>
<!DOCTYPE svg PUBLIC "-//W3C//DTD SVG 20010904//EN"
 "http://www.w3.org/TR/2001/REC-SVG-20010904/DTD/svg10.dtd">
<svg version="1.0" xmlns="http://www.w3.org/2000/svg"
 width="1024.000000pt" height="1024.000000pt" viewBox="0 0 1024.000000 1024.000000"
 preserveAspectRatio="xMidYMid meet">
<metadata>
Created by potrace 1.10, written by Peter Selinger 2001-2011
</metadata>
<g transform="translate(0.000000,1024.000000) scale(0.100000,-0.100000)"
fill="#000000" stroke="none">
<path d="M5640 10233 c-45 -7 -150 -44 -156 -55 -10 -17 -212 -108 -238 -108
-13 0 -41 -6 -62 -14 -24 -8 -114 -16 -235 -20 -108 -4 -214 -12 -235 -18 -21
-5 -73 -15 -114 -22 -41 -7 -86 -17 -100 -23 -14 -7 -46 -15 -73 -18 -34 -5
-52 -13 -63 -29 -8 -14 -40 -33 -74 -45 -33 -12 -72 -32 -87 -45 -16 -13 -42
-31 -60 -39 -17 -9 -34 -26 -38 -37 -3 -11 -26 -32 -51 -46 -28 -17 -52 -41
-65 -66 -11 -22 -34 -47 -52 -56 -18 -9 -63 -49 -102 -88 -38 -39 -104 -92
-146 -117 -62 -39 -91 -66 -155 -147 -43 -55 -92 -126 -109 -158 -16 -32 -52
-88 -78 -125 -27 -37 -55 -88 -62 -115 -17 -62 -66 -169 -113 -245 -118 -193
-350 -486 -439 -554 -18 -14 -43 -42 -55 -62 -34 -57 -110 -143 -276 -314
-180 -187 -247 -279 -244 -337 2 -23 -5 -55 -16 -77 -33 -65 -35 -109 -7 -218
16 -65 25 -128 25 -181 0 -85 16 -141 50 -179 29 -31 62 -133 69 -211 3 -39
11 -77 17 -85 7 -8 15 -30 18 -49 8 -39 33 -143 67 -268 20 -77 21 -97 16
-295 -7 -242 -21 -325 -68 -399 -43 -66 -88 -159 -89 -180 0 -31 -238 -208
-335 -249 -37 -16 -80 -39 -95 -52 -16 -12 -52 -35 -80 -52 -29 -16 -81 -49
-116 -72 -35 -24 -67 -43 -71 -43 -3 0 -24 -15 -47 -33 -23 -19 -70 -47 -106
-62 -36 -16 -74 -37 -85 -47 -12 -10 -36 -21 -54 -24 -21 -5 -48 -23 -73 -50
-22 -24 -58 -54 -81 -68 -57 -33 -105 -86 -161 -177 -55 -90 -58 -128 -21
-234 14 -38 25 -77 25 -86 0 -19 92 -150 161 -229 27 -31 61 -83 76 -117 22
-47 55 -89 147 -182 65 -67 132 -129 149 -137 99 -52 281 -192 429 -331 36
-35 72 -63 78 -63 37 0 340 -335 340 -375 0 -8 14 -23 30 -35 17 -12 39 -38
49 -58 11 -21 40 -57 66 -82 55 -53 135 -194 135 -237 0 -17 9 -50 20 -74 28
-63 28 -206 0 -242 -11 -14 -20 -39 -20 -55 0 -17 -10 -56 -22 -87 -17 -44
-29 -60 -57 -75 -54 -28 -89 -61 -109 -100 -9 -19 -33 -44 -52 -56 -19 -12
-44 -32 -55 -43 -11 -12 -44 -46 -73 -76 -66 -68 -73 -88 -63 -170 11 -95 31
-113 201 -187 l75 -32 220 -1 c188 0 226 3 264 18 42 17 45 17 97 -3 30 -11
73 -20 94 -20 22 0 40 -4 40 -10 0 -23 62 -77 102 -89 24 -8 69 -36 103 -65
63 -55 160 -129 208 -159 15 -10 39 -39 54 -65 21 -39 39 -55 92 -83 56 -30
73 -45 113 -106 26 -39 66 -84 89 -100 22 -15 68 -52 101 -80 41 -36 69 -53
88 -53 15 0 36 -10 50 -25 13 -14 33 -25 46 -25 12 0 35 -7 50 -15 34 -19 152
-12 196 11 15 8 38 14 52 14 14 0 113 45 220 100 109 56 207 100 223 100 45 0
106 20 135 45 15 13 47 26 70 30 24 4 59 14 78 22 19 9 76 19 127 24 51 4 112
14 135 22 24 8 84 18 133 22 50 4 101 13 115 20 15 7 79 14 155 17 122 4 133
6 179 33 37 21 54 40 69 74 19 44 31 64 105 179 18 29 53 94 78 145 60 125 86
172 110 199 12 13 30 41 41 63 11 22 28 55 39 74 26 44 266 284 314 313 41 25
141 103 205 159 22 20 69 55 105 79 36 24 90 69 120 101 30 31 74 66 98 78 23
12 53 38 66 59 35 54 110 132 128 132 25 0 55 43 61 89 4 31 15 54 40 80 18
20 62 77 97 126 35 50 88 116 119 148 53 56 189 157 210 157 6 0 34 20 64 44
29 24 63 49 75 55 12 6 31 28 42 49 11 20 49 76 83 124 34 47 76 105 92 129
17 23 44 57 61 74 18 17 42 52 54 76 12 24 43 67 69 94 27 28 60 72 75 98 15
26 47 70 72 98 24 27 44 54 44 59 0 4 20 32 44 60 28 32 48 69 56 98 8 34 25
61 60 97 27 28 64 74 82 102 18 28 51 78 74 110 22 32 44 75 47 97 3 21 23 70
43 110 20 39 47 91 60 116 69 133 98 412 53 510 -11 25 -29 68 -40 97 -11 28
-35 71 -54 95 -19 23 -35 48 -35 54 0 6 -14 23 -30 37 -16 15 -30 34 -30 42 0
9 -17 34 -39 58 -21 23 -57 78 -80 122 -23 44 -51 96 -62 115 -11 19 -38 73
-60 120 -22 47 -46 96 -54 110 -8 14 -17 37 -20 52 -3 16 -19 35 -40 48 -19
12 -35 28 -35 36 0 8 -16 31 -35 53 -19 21 -35 44 -35 50 0 7 -9 30 -20 51
-11 22 -27 68 -36 103 -8 34 -21 76 -29 92 -8 17 -17 51 -20 77 -4 30 -16 59
-31 77 -15 18 -29 51 -34 83 -5 29 -18 79 -29 110 -12 32 -21 80 -21 107 0 34
-8 62 -25 92 -31 55 -31 94 -1 156 13 26 32 71 42 99 18 51 17 55 -3 182 -18
104 -28 142 -54 188 -18 32 -36 78 -40 103 -14 84 -36 144 -66 180 -16 20 -48
75 -71 123 -23 47 -46 89 -52 93 -5 3 -10 18 -10 33 0 15 -11 59 -25 97 -13
39 -25 84 -25 101 0 16 -5 35 -12 42 -6 6 -13 49 -16 94 -3 60 -10 89 -23 107
-14 17 -19 40 -19 86 0 41 -7 78 -20 106 -26 57 -27 171 -2 231 24 61 25 375
1 428 -9 19 -24 61 -33 92 -19 65 -70 146 -116 184 -17 15 -38 40 -47 58 -23
46 -52 74 -84 81 -16 4 -41 21 -54 40 -21 27 -44 39 -123 65 -53 17 -114 43
-134 57 -61 41 -144 65 -260 73 -104 8 -109 9 -150 44 -37 32 -48 36 -97 36
-97 0 -170 17 -191 43 -10 13 -38 29 -62 36 -24 7 -63 20 -88 29 -25 8 -81 19
-125 23 -189 19 -304 44 -321 70 -3 5 -40 9 -82 9 -55 0 -89 6 -121 20 -53 24
-89 25 -152 3 -45 -16 -50 -16 -84 0 -20 9 -39 16 -43 16 -4 -1 -18 -4 -32 -6z"/>
</g>
</svg>
